src/actions/16/window-unpin.svg

<svg version="1.1" viewBox="0 0 16 16" xmlns="http://www.w3.org/2000/svg">
 <style id="current-color-scheme" type="text/css">.ColorScheme-Text {
            color:#363636;
        }
        .ColorScheme-NegativeText {
            color:#da4453;
        }</style>
 <path d="m10 1c-0.68119 0.68119-1.0696 1.8976-0.27734 3.2266l-2.0215 1.3535 2.7188 2.7188 1.3535-2.0215c1.329 0.79227 2.5454 0.40385 3.2266-0.27734l-5-5zm-5.7227 5.3984c-0.47399 0.025409-0.81753 0.14175-1.2773 0.60156l2 2.4629-3 3.5371-1 2 2-1 3.5859-3 2.4141 2c0.40783-0.40783 0.59144-0.81829 0.64453-1.2344l-5.3672-5.3672z" class="ColorScheme-Text" fill="currentColor"/>
 <path class="ColorScheme-NegativeText" d="M2.707 2L2 2.707 13.293 14l.707-.707z" fill="currentColor"/>
</svg>

<svg xmlns="http://www.w3.org/2000/svg" viewBox="0 0 16 16">
    <path fill="currentColor" d="M10 1c-.681.681-1.07 1.898-.277 3.227L7.7 5.58 10.42 8.3l1.353-2.022C13.103 7.07 14.32 6.681 15 6l-5-5zM4.277 6.398C3.803 6.424 3.46 6.54 3 7l2 2.463L2 13l-1 2 2-1 3.586-3L9 13c.408-.408.591-.818.645-1.234L4.277 6.398z" style="color:#050505;opacity:.7"/>
    <path fill="currentColor" d="M2.707 2 2 2.707 13.293 14l.707-.707z" style="color:#d98c8c"/>
</svg>
